src/rounded/icons/fi-rr-bell-ring.svg

<svg id="Layer_1" height="512" viewBox="0 0 24 24" width="512" xmlns="http://www.w3.org/2000/svg" data-name="Layer 1"><path d="m20.859 15.331-3.772 6.155a5.235 5.235 0 0 1 -3.87 2.477 5.315 5.315 0 0 1 -.628.037 5.212 5.212 0 0 1 -3-.955 4.741 4.741 0 0 1 -6.689-6.566l-1.315-1.313a5.264 5.264 0 0 1 .955-8.2l5.767-3.566a8.859 8.859 0 0 1 10.327.551l1.659-1.659a1 1 0 1 1 1.414 1.414l-1.657 1.658a8.951 8.951 0 0 1 .809 9.967zm-12.794 6.316-3.719-3.72a2.721 2.721 0 0 0 .463 3.264 2.827 2.827 0 0 0 3.256.456zm9.921-15.6a6.887 6.887 0 0 0 -8.617-.947l-5.777 3.566a3.265 3.265 0 0 0 -.592 5.086l7.29 7.291a3.265 3.265 0 0 0 5.093-.6l3.755-6.125a6.937 6.937 0 0 0 -1.152-8.276zm1.279 17.953a1 1 0 0 1 -.591-1.808 8.633 8.633 0 0 0 3.315-5.407 1 1 0 1 1 1.953.43 10.7 10.7 0 0 1 -4.088 6.593 1 1 0 0 1 -.589.192zm-18.265-18.261a1 1 0 0 1 -.8-1.594 10.692 10.692 0 0 1 6.713-4.125 1 1 0 1 1 .4 1.96 8.636 8.636 0 0 0 -5.513 3.354 1 1 0 0 1 -.8.405z"/></svg>

<svg id="Layer_1" data-name="Layer 1" xmlns="http://www.w3.org/2000/svg" viewBox="0 0 24 24"><path d="M20.859,15.331l-3.772,6.155a5.235,5.235,0,0,1-3.87,2.477,5.315,5.315,0,0,1-.628.037,5.212,5.212,0,0,1-3-.955A4.741,4.741,0,0,1,2.9,16.479L1.585,15.166a5.264,5.264,0,0,1,.955-8.2L8.307,3.4a8.859,8.859,0,0,1,10.327.551l1.659-1.659a1,1,0,1,1,1.414,1.414L20.05,5.364A8.951,8.951,0,0,1,20.859,15.331ZM8.065,21.647l-3.719-3.72a2.721,2.721,0,0,0,.463,3.264A2.827,2.827,0,0,0,8.065,21.647Zm9.921-15.6A6.887,6.887,0,0,0,9.369,5.1L3.592,8.666A3.265,3.265,0,0,0,3,13.752l7.29,7.291a3.265,3.265,0,0,0,5.093-.6l3.755-6.125A6.937,6.937,0,0,0,17.986,6.042ZM19.265,24a1,1,0,0,1-.591-1.808,8.633,8.633,0,0,0,3.315-5.407,1,1,0,1,1,1.953.43,10.7,10.7,0,0,1-4.088,6.593A1,1,0,0,1,19.265,24ZM1,5.739A1,1,0,0,1,.2,4.145,10.692,10.692,0,0,1,6.913.02a1,1,0,1,1,.4,1.96A8.636,8.636,0,0,0,1.8,5.334,1,1,0,0,1,1,5.739Z"/></svg>
